flaticon/arrows/diagonal-4.svg

<svg xmlns="http://www.w3.org/2000/svg" width="32" height="32" viewBox="0 0 24 24">
    <path d="M 12 0 C 5.382812 0 0 5.382812 0 12 C 0 18.617188 5.382812 24 12 24 C 18.617188 24 24 18.617188 24 12 C 24 5.382812 18.617188 0 12 0 Z M 12 23.109375 C 5.875 23.109375 0.890625 18.125 0.890625 12 C 0.890625 5.875 5.875 0.890625 12 0.890625 C 18.125 0.890625 23.109375 5.875 23.109375 12 C 23.109375 18.125 18.125 23.109375 12 23.109375 Z M 12 23.109375"/>
    <path d="M 9.074219 8.445312 L 14.285156 8.445312 L 14.285156 7.554688 L 7.554688 7.554688 L 7.554688 14.285156 L 8.445312 14.285156 L 8.445312 9.074219 L 15.855469 16.484375 C 15.945312 16.570312 16.058594 16.617188 16.171875 16.617188 C 16.285156 16.617188 16.398438 16.570312 16.484375 16.484375 C 16.660156 16.3125 16.660156 16.03125 16.484375 15.855469 Z M 9.074219 8.445312"/>
</svg>

<svg xmlns="http://www.w3.org/2000/svg" width="32" height="32" viewBox="0 0 24 24">
    <path d="M12 0C5.383 0 0 5.383 0 12s5.383 12 12 12 12-5.383 12-12S18.617 0 12 0zm0 23.11C5.875 23.11.89 18.124.89 12 .89 5.875 5.876.89 12 .89 18.125.89 23.11 5.876 23.11 12c0 6.125-4.985 11.11-11.11 11.11zm0 0"/>
    <path d="M9.074 8.445h5.211v-.89h-6.73v6.73h.89v-5.21l7.41 7.41a.46.46 0 0 0 .317.132.445.445 0 0 0 .312-.133.44.44 0 0 0 0-.629zm0 0"/>
</svg>
